**harm	**harte	**timestamp	**phrase	**leadinstrument	**kern
*M4/4	*M4/4	*	*	*	*
*D:	*D:	*	*	*	*D:
1r;	N	0	.	r	1r;
1r;	N	0.058	.	r	1r;
=1	=1	=1	=1	=1	=1
*>A_intro	*>A_intro	*>A_intro	*>A_intro	*>A_intro	*>A_intro
1V	A:1	7.983	newline	synthesizer	1A 1cc# 1ee
=2	=2	=2	=2	=2	=2
1V	A:1	8.903	.	synthesizer	1A 1cc# 1ee
=3	=3	=3	=3	=3	=3
1V	A:1	9.822	.	synthesizer	1A 1cc# 1ee
=4	=4	=4	=4	=4	=4
1V	A:1	10.742	.	synthesizer	1A 1cc# 1ee
=5	=5	=5	=5	=5	=5
1V	A:1	11.661	.	synthesizer	1A 1cc# 1ee
=6	=6	=6	=6	=6	=6
1V	A:1	12.581	.	synthesizer	1A 1cc# 1ee
=7	=7	=7	=7	=7	=7
1V	A:1	13.5	.	synthesizer	1A 1cc# 1ee
=8	=8	=8	=8	=8	=8
1V	A:1	14.42	.	synthesizer	1A 1cc# 1ee
=9	=9	=9	=9	=9	=9
1V	A:1	15.339	newline	guitar	1A 1cc# 1ee
=10	=10	=10	=10	=10	=10
1V	A:1	16.256	.	guitar	1A 1cc# 1ee
=11	=11	=11	=11	=11	=11
1V	A:1	17.172	.	guitar	1A 1cc# 1ee
=12	=12	=12	=12	=12	=12
1V	A:1	18.089	.	guitar	1A 1cc# 1ee
=13	=13	=13	=13	=13	=13
1V	A:1	19.006	.	guitar	1A 1cc# 1ee
=14	=14	=14	=14	=14	=14
1V	A:1	19.922	.	guitar	1A 1cc# 1ee
=15	=15	=15	=15	=15	=15
1V	A:1	20.839	.	guitar	1A 1cc# 1ee
=16	=16	=16	=16	=16	=16
1V	A:1	21.755	.	guitar	1A 1cc# 1ee
=17	=17	=17	=17	=17	=17
1v7	A:min7	22.672	newline	guitar	1A 1cc 1ee 1gg
=18	=18	=18	=18	=18	=18
1v7	A:min7	23.59	.	guitar	1A 1cc 1ee 1gg
=19	=19	=19	=19	=19	=19
1v7	A:min7	24.508	.	guitar	1A 1cc 1ee 1gg
=20	=20	=20	=20	=20	=20
1v7	A:min7	25.426	.	guitar	1A 1cc 1ee 1gg
=21	=21	=21	=21	=21	=21
1v7	A:min7	26.344	.	guitar	1A 1cc 1ee 1gg
=22	=22	=22	=22	=22	=22
1v7	A:min7	27.263	.	guitar	1A 1cc 1ee 1gg
=23	=23	=23	=23	=23	=23
1v7	A:min7	28.181	.	guitar	1A 1cc 1ee 1gg
=24	=24	=24	=24	=24	=24
1v7	A:min7	29.099	.	guitar	1A 1cc 1ee 1gg
=25	=25	=25	=25	=25	=25
1I	D:maj(#9)	30.017	newline	voice	1D 1f# 1a
=26	=26	=26	=26	=26	=26
1I	D:maj(#9)	30.945	.	voice	1D 1f# 1a
=27	=27	=27	=27	=27	=27
1-VII	C:maj	31.873	.	voice	1C 1e 1g
=28	=28	=28	=28	=28	=28
1V	A:maj(#9)	32.802	.	voice	1A 1cc# 1ee
=29	=29	=29	=29	=29	=29
1I	D:maj(#9)	33.73	.	voice	1D 1f# 1a
=30	=30	=30	=30	=30	=30
1I	D:maj(#9)	34.658	.	voice	1D 1f# 1a
=31	=31	=31	=31	=31	=31
1-VII	C:maj	35.586	.	voice	1C 1e 1g
=32	=32	=32	=32	=32	=32
1V	A:maj(#9)	36.514	.	voice	1A 1cc# 1ee
=33	=33	=33	=33	=33	=33
*>B_chorus	*>B_chorus	*>B_chorus	*>B_chorus	*>B_chorus	*>B_chorus
1vi	B:min	37.442	newline	voice	1B 1dd 1ff#
=34	=34	=34	=34	=34	=34
1vi	B:min	38.361	.	voice	1B 1dd 1ff#
=35	=35	=35	=35	=35	=35
1-VII	C:maj	39.28	.	voice	1C 1e 1g
=36	=36	=36	=36	=36	=36
1vi	B:min	40.199	.	voice	1B 1dd 1ff#
=37	=37	=37	=37	=37	=37
1I	D:maj	41.118	.	voice	1D 1f# 1a
=38	=38	=38	=38	=38	=38
1I	D:maj	42.036	.	voice	1D 1f# 1a
=39	=39	=39	=39	=39	=39
1I	D:maj	42.955	.	voice	1D 1f# 1a
=40	=40	=40	=40	=40	=40
1I	D:maj	43.874	.	voice	1D 1f# 1a
=41	=41	=41	=41	=41	=41
1vi	B:min	44.793	newline	voice	1B 1dd 1ff#
=42	=42	=42	=42	=42	=42
1vi	B:min	45.71	.	voice	1B 1dd 1ff#
=43	=43	=43	=43	=43	=43
1V	A:maj	46.628	.	voice	1A 1cc# 1ee
=44	=44	=44	=44	=44	=44
1V	A:maj	47.545	.	voice	1A 1cc# 1ee
=45	=45	=45	=45	=45	=45
1IV	G:maj	48.463	.	voice	1G 1b 1dd
=46	=46	=46	=46	=46	=46
1IV	G:maj	49.38	.	voice	1G 1b 1dd
=47	=47	=47	=47	=47	=47
1IV	G:maj	50.298	.	voice	1G 1b 1dd
=48	=48	=48	=48	=48	=48
1IV	G:maj	51.215	.	voice	1G 1b 1dd
=49	=49	=49	=49	=49	=49
1im7	D:min7	52.133	newline	guitar	1D 1f 1a 1cc#
=50	=50	=50	=50	=50	=50
1im7	D:min7	53.055	.	guitar	1D 1f 1a 1cc#
=51	=51	=51	=51	=51	=51
1im7	D:min7	53.978	.	guitar	1D 1f 1a 1cc#
=52	=52	=52	=52	=52	=52
1im7	D:min7	54.9	.	guitar	1D 1f 1a 1cc#
=53	=53	=53	=53	=53	=53
*>C_verse	*>C_verse	*>C_verse	*>C_verse	*>C_verse	*>C_verse
1I	D:maj	55.823	newline	voice	1D 1f# 1a
=54	=54	=54	=54	=54	=54
1I	D:maj	56.746	.	voice	1D 1f# 1a
=55	=55	=55	=55	=55	=55
1IV	G:maj	57.67	.	voice	1G 1b 1dd
=56	=56	=56	=56	=56	=56
1IV	G:maj	58.593	.	voice	1G 1b 1dd
=57	=57	=57	=57	=57	=57
1I	D:maj	59.516	.	voice	1D 1f# 1a
=58	=58	=58	=58	=58	=58
1I	D:maj	60.44	.	voice	1D 1f# 1a
=59	=59	=59	=59	=59	=59
1-VII	C:maj	61.363	.	voice	1C 1e 1g
=60	=60	=60	=60	=60	=60
1IV	G:maj	62.286	.	voice	1G 1b 1dd
=61	=61	=61	=61	=61	=61
1I	D:maj	63.21	newline	voice	1D 1f# 1a
=62	=62	=62	=62	=62	=62
1I	D:maj	64.127	.	voice	1D 1f# 1a
=63	=63	=63	=63	=63	=63
1IV	G:maj	65.045	.	voice	1G 1b 1dd
=64	=64	=64	=64	=64	=64
1IV	G:maj	65.962	.	voice	1G 1b 1dd
=65	=65	=65	=65	=65	=65
1I	D:maj	66.879	.	voice	1D 1f# 1a
=66	=66	=66	=66	=66	=66
1I	D:maj	67.797	.	voice	1D 1f# 1a
=67	=67	=67	=67	=67	=67
1I	D:maj	68.714	.	voice	1D 1f# 1a
=68	=68	=68	=68	=68	=68
1I	D:maj	69.632	.	voice	1D 1f# 1a
=69	=69	=69	=69	=69	=69
*>B_chorus	*>B_chorus	*>B_chorus	*>B_chorus	*>B_chorus	*>B_chorus
1vi	B:min	70.549	newline	voice	1B 1dd 1ff#
=70	=70	=70	=70	=70	=70
1vi	B:min	71.471	.	voice	1B 1dd 1ff#
=71	=71	=71	=71	=71	=71
1-VII	C:maj	72.393	.	voice	1C 1e 1g
=72	=72	=72	=72	=72	=72
1vi	B:min	73.314	.	voice	1B 1dd 1ff#
=73	=73	=73	=73	=73	=73
1I	D:maj	74.236	.	voice	1D 1f# 1a
=74	=74	=74	=74	=74	=74
1I	D:maj	75.158	.	voice	1D 1f# 1a
=75	=75	=75	=75	=75	=75
1I	D:maj	76.08	.	voice	1D 1f# 1a
=76	=76	=76	=76	=76	=76
1I	D:maj	77.001	.	voice	1D 1f# 1a
=77	=77	=77	=77	=77	=77
1vi	B:min	77.923	newline	voice	1B 1dd 1ff#
=78	=78	=78	=78	=78	=78
1vi	B:min	78.845	.	voice	1B 1dd 1ff#
=79	=79	=79	=79	=79	=79
1V	A:maj	79.767	.	voice	1A 1cc# 1ee
=80	=80	=80	=80	=80	=80
1V	A:maj	80.689	.	voice	1A 1cc# 1ee
=81	=81	=81	=81	=81	=81
1IV	G:maj	81.611	.	voice	1G 1b 1dd
=82	=82	=82	=82	=82	=82
1IV	G:maj	82.533	.	voice	1G 1b 1dd
=83	=83	=83	=83	=83	=83
1IV	G:maj	83.455	.	voice	1G 1b 1dd
=84	=84	=84	=84	=84	=84
1IV	G:maj	84.377	.	voice	1G 1b 1dd
=85	=85	=85	=85	=85	=85
1im7	D:min7	85.299	newline	guitar	1D 1f 1a 1cc#
=86	=86	=86	=86	=86	=86
1im7	D:min7	86.229	.	guitar	1D 1f 1a 1cc#
=87	=87	=87	=87	=87	=87
1im7	D:min7	87.159	.	guitar	1D 1f 1a 1cc#
=88	=88	=88	=88	=88	=88
1im7	D:min7	88.089	.	guitar	1D 1f 1a 1cc#
=89	=89	=89	=89	=89	=89
*>C_verse	*>C_verse	*>C_verse	*>C_verse	*>C_verse	*>C_verse
1I	D:maj	89.019	newline	voice	1D 1f# 1a
=90	=90	=90	=90	=90	=90
1I	D:maj	89.935	.	voice	1D 1f# 1a
=91	=91	=91	=91	=91	=91
1IV	G:maj	90.851	.	voice	1G 1b 1dd
=92	=92	=92	=92	=92	=92
1IV	G:maj	91.767	.	voice	1G 1b 1dd
=93	=93	=93	=93	=93	=93
1I	D:maj	92.683	.	voice	1D 1f# 1a
=94	=94	=94	=94	=94	=94
1I	D:maj	93.599	.	voice	1D 1f# 1a
=95	=95	=95	=95	=95	=95
1-VII	C:maj	94.515	.	voice	1C 1e 1g
=96	=96	=96	=96	=96	=96
1IV	G:maj	95.431	.	voice	1G 1b 1dd
=97	=97	=97	=97	=97	=97
1I	D:maj	96.347	newline	voice	1D 1f# 1a
=98	=98	=98	=98	=98	=98
1I	D:maj	97.266	.	voice	1D 1f# 1a
=99	=99	=99	=99	=99	=99
1IV	G:maj	98.184	.	voice	1G 1b 1dd
=100	=100	=100	=100	=100	=100
1IV	G:maj	99.102	.	voice	1G 1b 1dd
=101	=101	=101	=101	=101	=101
1I	D:maj	100.02	.	voice	1D 1f# 1a
=102	=102	=102	=102	=102	=102
1I	D:maj	100.938	.	voice	1D 1f# 1a
=103	=103	=103	=103	=103	=103
1I	D:maj	101.856	.	voice	1D 1f# 1a
=104	=104	=104	=104	=104	=104
1I	D:maj	102.774	.	voice	1D 1f# 1a
=105	=105	=105	=105	=105	=105
*>B_chorus	*>B_chorus	*>B_chorus	*>B_chorus	*>B_chorus	*>B_chorus
1vi	B:min	103.693	newline	voice	1B 1dd 1ff#
=106	=106	=106	=106	=106	=106
1vi	B:min	104.616	.	voice	1B 1dd 1ff#
=107	=107	=107	=107	=107	=107
1-VII	C:maj	105.539	.	voice	1C 1e 1g
=108	=108	=108	=108	=108	=108
1vi	B:min	106.462	.	voice	1B 1dd 1ff#
=109	=109	=109	=109	=109	=109
1I	D:maj	107.385	.	voice	1D 1f# 1a
=110	=110	=110	=110	=110	=110
1I	D:maj	108.309	.	voice	1D 1f# 1a
=111	=111	=111	=111	=111	=111
1I	D:maj	109.232	.	voice	1D 1f# 1a
=112	=112	=112	=112	=112	=112
1I	D:maj	110.155	.	voice	1D 1f# 1a
=113	=113	=113	=113	=113	=113
1vi	B:min	111.078	newline	voice	1B 1dd 1ff#
=114	=114	=114	=114	=114	=114
1vi	B:min	111.997	.	voice	1B 1dd 1ff#
=115	=115	=115	=115	=115	=115
1V	A:maj	112.916	.	voice	1A 1cc# 1ee
=116	=116	=116	=116	=116	=116
1V	A:maj	113.835	.	voice	1A 1cc# 1ee
=117	=117	=117	=117	=117	=117
1IV	G:maj	114.754	.	voice	1G 1b 1dd
=118	=118	=118	=118	=118	=118
1IV	G:maj	115.673	.	voice	1G 1b 1dd
=119	=119	=119	=119	=119	=119
1IV	G:maj	116.592	.	voice	1G 1b 1dd
=120	=120	=120	=120	=120	=120
1IV	G:maj	117.511	.	voice	1G 1b 1dd
=121	=121	=121	=121	=121	=121
*>D_bridge	*>D_bridge	*>D_bridge	*>D_bridge	*>D_bridge	*>D_bridge
1vi	B:min	118.43	newline	voice	1B 1dd 1ff#
=122	=122	=122	=122	=122	=122
1vi	B:min	119.353	.	voice	1B 1dd 1ff#
=123	=123	=123	=123	=123	=123
1vi	B:min	120.277	.	voice	1B 1dd 1ff#
=124	=124	=124	=124	=124	=124
1vi	B:min	121.2	.	voice	1B 1dd 1ff#
=125	=125	=125	=125	=125	=125
1IV	G:maj	122.124	.	voice	1G 1b 1dd
=126	=126	=126	=126	=126	=126
1IV	G:maj	123.047	.	voice	1G 1b 1dd
=127	=127	=127	=127	=127	=127
1IV	G:maj	123.97	.	voice	1G 1b 1dd
=128	=128	=128	=128	=128	=128
1IV	G:maj	124.894	.	voice	1G 1b 1dd
=129	=129	=129	=129	=129	=129
1vi	B:min	125.817	newline	voice	1B 1dd 1ff#
=130	=130	=130	=130	=130	=130
1vi	B:min	126.738	.	voice	1B 1dd 1ff#
=131	=131	=131	=131	=131	=131
1vi	B:min	127.659	.	voice	1B 1dd 1ff#
=132	=132	=132	=132	=132	=132
1vi	B:min	128.581	.	voice	1B 1dd 1ff#
=133	=133	=133	=133	=133	=133
1IV	G:maj	129.502	.	voice	1G 1b 1dd
=134	=134	=134	=134	=134	=134
1IV	G:maj	130.423	.	voice	1G 1b 1dd
=135	=135	=135	=135	=135	=135
1IV	G:maj	131.344	.	voice	1G 1b 1dd
=136	=136	=136	=136	=136	=136
1IV	G:maj	132.266	.	voice	1G 1b 1dd
=137	=137	=137	=137	=137	=137
1iii	F#:sus4(b7)	133.187	newline	voice	1F# 1a 1cc#
=138	=138	=138	=138	=138	=138
1iii	F#:sus4(b7)	134.091	.	voice	1F# 1a 1cc#
=139	=139	=139	=139	=139	=139
1III7	F#:7	134.994	.	voice	1F# 1a# 1cc# 1ee
=140	=140	=140	=140	=140	=140
1III7	F#:7	135.898	.	voice	1F# 1a# 1cc# 1ee
=141	=141	=141	=141	=141	=141
1vi	B:min	136.802	newline	synthesizer	1B 1dd 1ff#
=142	=142	=142	=142	=142	=142
1vi	B:min	137.732	.	synthesizer	1B 1dd 1ff#
=143	=143	=143	=143	=143	=143
1vi	B:min	138.662	.	synthesizer	1B 1dd 1ff#
=144	=144	=144	=144	=144	=144
1vi	B:min	139.593	.	synthesizer	1B 1dd 1ff#
=145	=145	=145	=145	=145	=145
1IV	G:maj	140.523	.	synthesizer	1G 1b 1dd
=146	=146	=146	=146	=146	=146
1IV	G:maj	141.453	.	synthesizer	1G 1b 1dd
=147	=147	=147	=147	=147	=147
1IV	G:maj	142.384	.	synthesizer	1G 1b 1dd
=148	=148	=148	=148	=148	=148
1IV	G:maj	143.314	.	synthesizer	1G 1b 1dd
=149	=149	=149	=149	=149	=149
1vi	B:min	144.244	newline	voice	1B 1dd 1ff#
=150	=150	=150	=150	=150	=150
1vi	B:min	145.167	.	voice	1B 1dd 1ff#
=151	=151	=151	=151	=151	=151
1vi	B:min	146.091	.	voice	1B 1dd 1ff#
=152	=152	=152	=152	=152	=152
1vi	B:min	147.014	.	voice	1B 1dd 1ff#
=153	=153	=153	=153	=153	=153
1IV	G:maj	147.937	.	voice	1G 1b 1dd
=154	=154	=154	=154	=154	=154
1IV	G:maj	148.861	.	voice	1G 1b 1dd
=155	=155	=155	=155	=155	=155
1IV	G:maj	149.784	.	voice	1G 1b 1dd
=156	=156	=156	=156	=156	=156
1IV	G:maj	150.707	.	voice	1G 1b 1dd
=157	=157	=157	=157	=157	=157
1iii	F#:sus4(b7)	151.631	newline	voice	1F# 1a 1cc#
=158	=158	=158	=158	=158	=158
1iii	F#:sus4(b7)	152.547	.	voice	1F# 1a 1cc#
=159	=159	=159	=159	=159	=159
1III7	F#:7	153.463	.	voice	1F# 1a# 1cc# 1ee
=160	=160	=160	=160	=160	=160
1III7	F#:7	154.379	.	voice	1F# 1a# 1cc# 1ee
=161	=161	=161	=161	=161	=161
*>A_interlude	*>A_interlude	*>A_interlude	*>A_interlude	*>A_interlude	*>A_interlude
1im7	D:min7	155.295	newline	guitar	1D 1f 1a 1cc#
=162	=162	=162	=162	=162	=162
1im7	D:min7	156.222	.	guitar	1D 1f 1a 1cc#
=163	=163	=163	=163	=163	=163
1im7	D:min7	157.148	.	guitar	1D 1f 1a 1cc#
=164	=164	=164	=164	=164	=164
1im7	D:min7	158.075	.	guitar	1D 1f 1a 1cc#
=165	=165	=165	=165	=165	=165
1im7	D:min7	159.002	.	guitar	1D 1f 1a 1cc#
=166	=166	=166	=166	=166	=166
1im7	D:min7	159.928	.	guitar	1D 1f 1a 1cc#
=167	=167	=167	=167	=167	=167
1im7	D:min7	160.855	.	guitar	1D 1f 1a 1cc#
=168	=168	=168	=168	=168	=168
1im7	D:min7	161.782	.	guitar	1D 1f 1a 1cc#
=169	=169	=169	=169	=169	=169
*>C_verse	*>C_verse	*>C_verse	*>C_verse	*>C_verse	*>C_verse
1I	D:maj	162.708	newline	voice	1D 1f# 1a
=170	=170	=170	=170	=170	=170
1I	D:maj	163.628	.	voice	1D 1f# 1a
=171	=171	=171	=171	=171	=171
1IV	G:maj	164.548	.	voice	1G 1b 1dd
=172	=172	=172	=172	=172	=172
1IV	G:maj	165.468	.	voice	1G 1b 1dd
=173	=173	=173	=173	=173	=173
1I	D:maj	166.388	.	voice	1D 1f# 1a
=174	=174	=174	=174	=174	=174
1I	D:maj	167.308	.	voice	1D 1f# 1a
=175	=175	=175	=175	=175	=175
1-VII	C:maj	168.228	.	voice	1C 1e 1g
=176	=176	=176	=176	=176	=176
1IV	G:maj	169.148	.	voice	1G 1b 1dd
=177	=177	=177	=177	=177	=177
1I	D:maj	170.068	newline	voice	1D 1f# 1a
=178	=178	=178	=178	=178	=178
1I	D:maj	170.989	.	voice	1D 1f# 1a
=179	=179	=179	=179	=179	=179
1IV	G:maj	171.911	.	voice	1G 1b 1dd
=180	=180	=180	=180	=180	=180
1IV	G:maj	172.832	.	voice	1G 1b 1dd
=181	=181	=181	=181	=181	=181
1I	D:maj	173.753	.	voice	1D 1f# 1a
=182	=182	=182	=182	=182	=182
1I	D:maj	174.674	.	voice	1D 1f# 1a
=183	=183	=183	=183	=183	=183
1I	D:maj	175.595	.	voice	1D 1f# 1a
=184	=184	=184	=184	=184	=184
1I	D:maj	176.516	.	voice	1D 1f# 1a
=185	=185	=185	=185	=185	=185
*>B_chorus	*>B_chorus	*>B_chorus	*>B_chorus	*>B_chorus	*>B_chorus
1vi	B:min	177.437	newline	voice	1B 1dd 1ff#
=186	=186	=186	=186	=186	=186
1vi	B:min	178.353	.	voice	1B 1dd 1ff#
=187	=187	=187	=187	=187	=187
1-VII	C:maj	179.269	.	voice	1C 1e 1g
=188	=188	=188	=188	=188	=188
1vi	B:min	180.186	.	voice	1B 1dd 1ff#
=189	=189	=189	=189	=189	=189
1I	D:maj	181.102	.	voice	1D 1f# 1a
=190	=190	=190	=190	=190	=190
1I	D:maj	182.018	.	voice	1D 1f# 1a
=191	=191	=191	=191	=191	=191
1I	D:maj	182.934	.	voice	1D 1f# 1a
=192	=192	=192	=192	=192	=192
1I	D:maj	183.85	.	voice	1D 1f# 1a
=193	=193	=193	=193	=193	=193
1vi	B:min	184.766	newline	voice	1B 1dd 1ff#
=194	=194	=194	=194	=194	=194
1vi	B:min	185.688	.	voice	1B 1dd 1ff#
=195	=195	=195	=195	=195	=195
1V	A:maj	186.609	.	voice	1A 1cc# 1ee
=196	=196	=196	=196	=196	=196
1V	A:maj	187.53	.	voice	1A 1cc# 1ee
=197	=197	=197	=197	=197	=197
1IV	G:maj	188.451	.	voice	1G 1b 1dd
=198	=198	=198	=198	=198	=198
1IV	G:maj	189.373	.	voice	1G 1b 1dd
=199	=199	=199	=199	=199	=199
1IV	G:maj	190.294	.	voice	1G 1b 1dd
=200	=200	=200	=200	=200	=200
1IV	G:maj	191.215	.	voice	1G 1b 1dd
=201	=201	=201	=201	=201	=201
*>B_chorus	*>B_chorus	*>B_chorus	*>B_chorus	*>B_chorus	*>B_chorus
1vi	B:min	192.137	newline	voice	1B 1dd 1ff#
=202	=202	=202	=202	=202	=202
1vi	B:min	193.062	.	voice	1B 1dd 1ff#
=203	=203	=203	=203	=203	=203
1-VII	C:maj	193.988	.	voice	1C 1e 1g
=204	=204	=204	=204	=204	=204
1vi	B:min	194.914	.	voice	1B 1dd 1ff#
=205	=205	=205	=205	=205	=205
1I	D:maj	195.84	.	voice	1D 1f# 1a
=206	=206	=206	=206	=206	=206
1I	D:maj	196.766	.	voice	1D 1f# 1a
=207	=207	=207	=207	=207	=207
1I	D:maj	197.692	.	voice	1D 1f# 1a
=208	=208	=208	=208	=208	=208
1I	D:maj	198.618	.	voice	1D 1f# 1a
=209	=209	=209	=209	=209	=209
*>_fadeout	*>_fadeout	*>_fadeout	*>_fadeout	*>_fadeout	*>_fadeout
1vi	B:min	199.543	newline	voice	1B 1dd 1ff#
=210	=210	=210	=210	=210	=210
1vi	B:min	200.46	.	voice	1B 1dd 1ff#
=211	=211	=211	=211	=211	=211
1V	A:maj	201.377	.	voice	1A 1cc# 1ee
=212	=212	=212	=212	=212	=212
1V	A:maj	202.293	.	voice	1A 1cc# 1ee
=213	=213	=213	=213	=213	=213
1IV	G:maj	203.21	.	voice	1G 1b 1dd
=214	=214	=214	=214	=214	=214
1IV	G:maj	204.126	.	voice	1G 1b 1dd
=215	=215	=215	=215	=215	=215
1IV	G:maj	205.043	.	voice	1G 1b 1dd
=216	=216	=216	=216	=216	=216
1IV	G:maj	205.96	.	voice	1G 1b 1dd
=217	=217	=217	=217	=217	=217
1vi	B:min	206.876	newline	voice	1B 1dd 1ff#
=218	=218	=218	=218	=218	=218
1vi	B:min	207.563	.	voice	1B 1dd 1ff#
=219	=219	=219	=219	=219	=219
1-VII	C:maj	208.251	.	voice	1C 1e 1g
=220	=220	=220	=220	=220	=220
1vi	B:min	208.938	.	voice	1B 1dd 1ff#
=221	=221	=221	=221	=221	=221
1I	D:maj	209.625	.	voice	1D 1f# 1a
=222	=222	=222	=222	=222	=222
1I	D:maj	210.312	.	voice	1D 1f# 1a
1r;	N	211	.	r	1r;
1r;	N	215.014	.	r	1r;
*-	*-	*-	*-	*-	*-
!!!OTL: Born To Be Alive
!!!COC: Patrick Hernandez
!!!BillboardChartDate: 1979/07/14, 1979/06/30, 1979/08/04
!!!BillboardPeak: 16, 16, 16
!!!BillboardWeeksOnChart: 19, 19, 19
!!!SampleTargetRank: 59, 79, 40
!!!SampleActualRank: 60, 78, 40
!!!SampleID#: 259, 279, 552
!!!RDF**harmony: **recip + pitch class of root + harmonic quality
!!!RDF**harte: Chris Harte's syntax, used by MIREX
!!!RDF**phrase: newline = linebreak in original McGill transcription
!!!RDF**timestamp: McGill audio timestamp in seconds
!!!RDF**leadinstrument: original McGill primary instrumentation annotation
!!!RDT: 2017/01/12/
!!!ENC: Nathaniel Condit-Schultz
!!!EST: Awating manual error checking and editing.
